assets/icons/calendar-line.svg

<svg xmlns="http://www.w3.org/2000/svg" viewBox="0 0 30 32" role="presentation" aria-hidden="true"><path fill-rule="evenodd" clip-rule="evenodd" d="M10.9946 5.3877C11.5123 5.3877 11.9321 5.83541 11.9321 6.3877V7.52371H18.0671V6.3877C18.0671 5.83541 18.4868 5.3877 19.0046 5.3877C19.5224 5.3877 19.9421 5.83541 19.9421 6.3877V7.52371H22.0084C22.7881 7.52371 23.5359 7.85411 24.0873 8.44222C24.6386 9.03034 24.9484 9.82799 24.9484 10.6597V23.4758C24.9484 24.3075 24.6386 25.1052 24.0873 25.6933C23.5359 26.2814 22.7881 26.6118 22.0084 26.6118H7.99079C7.21105 26.6118 6.46325 26.2814 5.91189 25.6933C5.36053 25.1052 5.05078 24.3075 5.05078 23.4758V10.6597C5.05078 9.82799 5.36053 9.03034 5.91189 8.44222C6.46325 7.85411 7.21105 7.52371 7.99079 7.52371H10.0571V6.3877C10.0571 5.83541 10.4768 5.3877 10.9946 5.3877ZM10.0571 9.52371H7.99079C7.70833 9.52371 7.43744 9.64339 7.23772 9.85644C7.03799 10.0695 6.92578 10.3584 6.92578 10.6597V23.4758C6.92578 23.7771 7.03799 24.066 7.23772 24.2791C7.43744 24.4921 7.70833 24.6118 7.99079 24.6118H22.0084C22.2908 24.6118 22.5617 24.4921 22.7614 24.2791C22.9612 24.066 23.0734 23.7771 23.0734 23.4758V10.6597C23.0734 10.3584 22.9612 10.0695 22.7614 9.85644C22.5617 9.64339 22.2908 9.52371 22.0084 9.52371H19.9421V10.6597C19.9421 11.212 19.5224 11.6597 19.0046 11.6597C18.4868 11.6597 18.0671 11.212 18.0671 10.6597V9.52371H11.9321V10.6597C11.9321 11.212 11.5123 11.6597 10.9946 11.6597C10.4768 11.6597 10.0571 11.212 10.0571 10.6597V9.52371ZM9.0558 14.9317C9.0558 14.3795 9.47553 13.9317 9.9933 13.9317H20.0059C20.5236 13.9317 20.9434 14.3795 20.9434 14.9317C20.9434 15.484 20.5236 15.9317 20.0059 15.9317H9.9933C9.47553 15.9317 9.0558 15.484 9.0558 14.9317Z" fill="currentColor"/></svg>

<svg xmlns="http://www.w3.org/2000/svg" aria-hidden="true" viewBox="0 0 30 32"><path fill="currentColor" fill-rule="evenodd" d="M10.995 5.388c.517 0 .937.447.937 1v1.136h6.135V6.388c0-.553.42-1 .938-1 .517 0 .937.447.937 1v1.136h2.066c.78 0 1.528.33 2.08.918.55.588.86 1.386.86 2.218v12.816c0 .832-.31 1.63-.86 2.217a2.85 2.85 0 0 1-2.08.919H7.991a2.85 2.85 0 0 1-2.08-.919 3.25 3.25 0 0 1-.86-2.217V10.66c0-.832.31-1.63.86-2.218a2.85 2.85 0 0 1 2.08-.918h2.066V6.388c0-.553.42-1 .938-1m-.938 4.136H7.991c-.283 0-.554.12-.753.332-.2.213-.312.502-.312.804v12.816c0 .301.112.59.312.803s.47.333.753.333h14.017c.283 0 .554-.12.753-.333.2-.213.312-.502.312-.803V10.66c0-.302-.112-.59-.312-.804-.2-.213-.47-.332-.753-.332h-2.066v1.136c0 .552-.42 1-.937 1s-.938-.448-.938-1V9.524h-6.135v1.136c0 .552-.42 1-.937 1s-.938-.448-.938-1zm-1.001 5.408c0-.553.42-1 .937-1h10.013c.518 0 .937.447.937 1s-.42 1-.937 1H9.993c-.517 0-.937-.448-.937-1" clip-rule="evenodd"/></svg>
